assets/images/bf-logo-light-blue.svg

<?xml version="1.0" encoding="UTF-8"?>
<svg width="448px" height="132px" viewBox="0 0 448 132" version="1.1" xmlns="http://www.w3.org/2000/svg" xmlns:xlink="http://www.w3.org/1999/xlink">
    <!-- Generator: Sketch 50.2 (55047) - http://www.bohemiancoding.com/sketch -->
    <title>BF Logo White</title>
    <desc>Created with Sketch.</desc>
    <defs>
        <polygon id="path-1" points="0 0.0241325905 0 71.3032747 28.7106913 71.3032747 28.7106913 0.0241325905"></polygon>
    </defs>
    <g id="Footer" stroke="none" stroke-width="1" fill="none" fill-rule="evenodd">
        <g id="Desktop-HD" transform="translate(-496.000000, -555.000000)">
            <g id="BF-Logo-White" transform="translate(496.000000, 555.000000)">
                <path d="M438.760278,11 L438.760278,6.04029304 L437,6.04029304 L437,5 L441.626818,5 L441.626818,6.04029304 L439.915244,6.04029304 L439.915244,11 L438.760278,11 Z M442.315623,11 L442.315623,5 L444.117647,5 L445.154333,9.13186813 L446.197976,5 L448,5 L448,11 L446.900696,11 L446.900696,6.21611722 L445.669197,11 L444.625553,11 L443.401012,6.21611722 L443.401012,11 L442.315623,11 Z" id="™" fill="#B1CDF8"></path>
                <g id="Page-1">
                    <g id="Group-3" transform="translate(0.000000, 4.902507)">
                        <mask id="mask-2" fill="white">
                            <use xlink:href="#path-1"></use>
                        </mask>
                        <g id="Clip-2"></g>
                        <path d="M5.80894437,63.6270641 C7.14425625,64.0464735 8.67995701,64.1512646 10.6829862,64.1512646 C14.2886353,64.1512646 17.9608351,62.3693259 20.1642532,58.7005348 C21.6999539,56.1846908 22.6346108,52.725727 22.6346108,48.3230306 C22.6346108,42.8723008 21.1657064,39.2035097 18.9624111,36.7925794 C16.6255232,34.2768579 13.620918,33.2287019 10.4160466,33.2287019 C9.08061197,33.2287019 7.27784883,33.4382841 5.80894437,33.6478663 L5.80894437,63.6270641 Z M25.2386839,0 L25.2386839,7.65195543 L5.80894437,7.65195543 L5.80894437,26.6249025 C7.21105254,26.3104067 9.8817991,26.1007019 11.3507036,26.1007019 C15.6239472,26.1007019 19.8303945,27.5682674 22.9685923,30.8177716 C26.3737297,34.2768579 28.7107404,39.8325014 28.7107404,48.1134485 C28.7107404,54.7172479 27.3085094,59.7486908 24.9714987,63.4174819 C21.299299,69.078039 15.2232922,71.2791421 9.08061197,71.2791421 C5.00775724,71.2791421 1.93635572,70.8599777 0,70.4405682 L0,0 L25.2386839,0 Z" id="Fill-1" fill="#B1CDF8" mask="url(#mask-2)"></path>
                    </g>
                    <path d="M34.5858671,75.5768022 L40.4616078,75.5768022 L40.4616078,24.8428412 L34.5858671,24.8428412 L34.5858671,75.5768022 Z M41.1292023,10.5869638 C41.1959986,13.7316769 39.7270941,16.2473983 37.3902062,16.2473983 C35.3202579,16.2473983 33.8513535,13.7316769 33.8513535,10.5869638 C33.8513535,7.33758217 35.3870542,4.82173816 37.5237988,4.82173816 C39.7270941,4.82173816 41.1292023,7.33758217 41.1292023,10.5869638 Z" id="Fill-4" fill="#B1CDF8"></path>
                    <path d="M61.4267411,31.6562964 C57.9546846,31.6562964 55.4843269,34.4865136 54.1488922,38.5745916 C53.0805199,41.6145136 52.5463952,45.2831822 52.5463952,49.3712602 C52.5463952,57.7569983 55.1504682,69.8116501 61.5602109,69.8116501 C68.0368726,69.8116501 70.440434,59.958224 70.440434,50.6291209 C70.440434,42.3481738 68.3707312,31.6562964 61.4267411,31.6562964 Z M72.9777107,7.65202897 C71.3085402,8.59539387 68.3707312,9.43396769 66.2339867,9.95804568 C61.0260861,11.216029 57.220171,13.9413326 54.7498133,19.496976 C52.6799878,24.109132 51.4781457,30.9225136 51.2110833,36.2684524 L51.4113494,36.2684524 C53.4811749,28.9309928 58.0214809,24.8429148 62.6284604,24.8429148 C70.5740266,24.8429148 76.3829709,33.7527309 76.3829709,49.8953382 C76.3829709,66.4573549 70.9078852,76.7299454 61.4267411,76.7299454 C50.0760375,76.7299454 46.3367959,59.6438507 46.3367959,42.7674607 C46.3367959,31.2370095 47.8724966,21.8029928 51.3445531,14.6751153 C54.4826281,7.65202897 58.9562606,4.40252479 65.2325334,2.72537716 C67.8364837,2.09638552 71.0414778,1.2578117 73.2447731,-4.90250697e-05 L72.9777107,7.65202897 Z" id="Fill-6" fill="#B1CDF8"></path>
                    <path d="M106.629375,24.842878 L106.629375,75.576839 L100.820431,75.576839 L100.820431,32.0756691 L89.7367897,32.0756691 L89.7367897,45.2831454 C89.7367897,59.5391454 88.8688062,69.0779532 84.6623589,73.3754908 C83.0598619,75.3671343 81.2570987,76.5203265 78.2526163,76.5203265 L77.6515725,69.2875354 C78.7866183,68.9730396 80.0552566,68.2393794 80.8565666,67.1911008 C83.861049,63.7318919 84.1950305,56.604137 84.1950305,45.2831454 L84.1950305,24.842878 L106.629375,24.842878 Z" id="Fill-7" fill="#B1CDF8"></path>
                    <path d="M114.574303,75.5768022 L120.450044,75.5768022 L120.450044,24.8428412 L114.574303,24.8428412 L114.574303,75.5768022 Z M121.117638,10.5869638 C121.184434,13.7316769 119.71553,16.2473983 117.378642,16.2473983 C115.308817,16.2473983 113.839912,13.7316769 113.839912,10.5869638 C113.839912,7.33758217 115.375613,4.82173816 117.512235,4.82173816 C119.71553,4.82173816 121.117638,7.33758217 121.117638,10.5869638 Z" id="Fill-8" fill="#B1CDF8"></path>
                    <path d="M146.622427,30.9225382 C145.153522,30.6081649 143.818087,30.3984602 141.748385,30.3984602 C137.742204,30.3984602 133.001509,32.1803989 133.001509,39.2034852 C133.001509,45.7024936 138.142736,48.0086329 141.614792,48.0086329 L146.622427,48.0086329 L146.622427,30.9225382 Z M152.431371,75.5769003 L146.622427,75.5769003 L146.622427,54.2979365 L142.282387,54.2979365 C139.812029,54.2979365 138.142736,55.3460925 136.874097,57.1280312 C134.470413,60.1679532 133.60243,66.4573794 132.333914,71.3840312 C131.933259,72.9563877 131.465808,74.318917 130.998479,75.5769003 L124.722207,75.5769003 C125.456597,73.8997526 126.124438,72.0130228 126.725236,69.8116747 C128.127467,64.8850228 128.928654,58.2812234 131.799667,54.5076412 C132.801243,53.1448669 134.003085,51.9917972 135.471989,51.5725103 L135.471989,51.258137 C131.265665,50.5243543 126.925625,46.4362763 126.925625,38.6794072 C126.925625,33.4382596 128.728388,29.8743822 131.198868,27.673034 C133.869615,25.2621036 137.809,24.2139476 142.015324,24.2139476 C145.888036,24.2139476 149.627032,24.7380256 152.431371,25.2621036 L152.431371,75.5769003 Z" id="Fill-9" fill="#B1CDF8"></path>
                    <path d="M294.04609,49.685756 C287.636224,49.4761738 280.358375,51.2581125 280.358375,61.1114162 C280.358375,67.0863465 282.895529,69.9164412 285.900257,69.9164412 C290.106705,69.9164412 292.777451,65.7235721 293.712108,61.425912 C293.912497,60.4825471 294.04609,59.4342685 294.04609,58.4909036 L294.04609,49.685756 Z M294.91395,75.5768758 L294.446744,69.1827811 L294.246356,69.1827811 C292.443592,73.1659454 288.971659,76.7299454 284.364557,76.7299454 C277.821099,76.7299454 274.482757,69.4971543 274.482757,62.1595721 C274.482757,49.8953382 281.426748,43.1867476 293.912497,43.2916613 L293.912497,42.2433827 C293.912497,38.0505136 293.178106,30.5032267 286.567975,30.5032267 C283.563369,30.5032267 280.425172,31.9707922 278.15508,34.2768089 L276.819645,28.19721 C279.490392,25.4717838 283.362981,23.6898451 287.435958,23.6898451 C297.317757,23.6898451 299.721441,34.2768089 299.721441,44.4446084 L299.721441,63.4175554 C299.721441,67.8200067 299.855034,72.1176669 300.255566,75.5768758 L294.91395,75.5768758 Z" id="Fill-10" fill="#B1CDF8"></path>
                    <path d="M316.213151,40.251727 C316.213151,46.9603175 315.61223,53.4593259 314.543858,59.1197604 C313.876263,62.5788468 312.941483,65.7235599 311.939907,68.5536546 L326.829464,68.5536546 L326.829464,31.8659889 L316.213151,31.8659889 L316.213151,40.251727 Z M332.571612,24.8429025 L332.571612,68.6585682 L335.909953,68.7633593 L335.576094,91.7194708 L330.969115,91.7194708 L330.702052,75.5768635 L308.334381,75.5768635 L308.067319,91.7194708 L303.460339,91.7194708 L303.193277,68.7633593 L305.93082,68.6585682 C307.332928,65.4090641 308.401177,61.9499777 309.135568,58.2811866 C310.404207,51.991883 311.00525,45.1783788 311.00525,38.0505014 L311.00525,24.8429025 L332.571612,24.8429025 Z" id="Fill-11" fill="#B1CDF8"></path>
                    <path d="M355.873572,24.842878 L362.951154,54.8221983 C363.685545,58.176371 364.486732,62.1596579 365.020857,65.1994574 L365.15445,65.1994574 C365.755371,62.1596579 366.423088,58.2811621 367.224275,54.6124936 L373.63414,24.842878 L379.843617,24.842878 L371.03019,61.0064657 C366.823743,78.4070563 363.952607,87.316995 359.946426,92.7677248 C357.075414,96.7510117 354.204278,98.3232457 352.735374,98.7426552 L351.266469,90.9857861 C352.735374,90.2521259 354.671729,88.7844379 356.407819,86.4784212 C358.010071,84.4869003 360.013223,80.9229003 361.348657,76.2057081 C361.61572,75.2623432 361.815986,74.528683 361.815986,74.004605 C361.815986,73.4804045 361.682516,72.7467443 361.415453,71.5935521 L349.463706,24.842878 L355.873572,24.842878 Z" id="Fill-12" fill="#B1CDF8"></path>
                    <path d="M405.950886,73.6900847 C404.415185,74.948068 401.010048,76.625093 396.670008,76.625093 C386.921679,76.625093 380.57861,66.2477114 380.57861,50.7339733 C380.57861,35.115444 387.38913,23.7945749 397.938646,23.7945749 C401.41058,23.7945749 404.481982,25.1573493 406.084479,26.41521 L404.749044,33.5430875 C403.346936,32.2852267 401.14364,31.1322797 397.938646,31.1322797 C390.527328,31.1322797 386.521146,39.7276 386.521146,50.3146864 C386.521146,62.0547198 391.328515,69.2875109 397.738257,69.2875109 C401.076844,69.2875109 403.280139,67.9248591 404.949433,66.7717894 L405.950886,73.6900847 Z" id="Fill-13" fill="#B1CDF8"></path>
                    <path d="M431.256698,45.2831944 C431.323494,39.4131777 429.720997,30.2936568 423.110865,30.2936568 C417.168451,30.2936568 414.564501,38.8890997 414.09705,45.2831944 L431.256698,45.2831944 Z M414.030253,51.8871164 C414.163846,64.3609326 419.238277,69.497044 425.113895,69.497044 C429.320342,69.497044 431.857619,68.3440969 434.060914,66.876654 L435.06249,73.4803309 C432.992665,74.9480189 429.453812,76.6251666 424.312708,76.6251666 C414.364112,76.6251666 408.421575,66.3524535 408.421575,51.0484201 C408.421575,35.7443866 414.163846,23.6898574 423.578194,23.6898574 C434.12771,23.6898574 436.93205,38.2601081 436.93205,47.5893337 C436.93205,49.4760635 436.798457,50.943629 436.731783,51.8871164 L414.030253,51.8871164 Z" id="Fill-14" fill="#B1CDF8"></path>
                    <path d="M193.493003,71.0601348 C195.241617,70.0868646 197.202776,69.1859064 199.368744,68.4573939 L199.368744,24.8428535 L172.661156,24.8428535 L172.661156,75.576937 L178.469977,75.576937 L178.469977,32.1804357 L193.493003,32.1804357 L193.493003,71.0601348 Z" id="Fill-15" fill="#B1CDF8"></path>
                    <polygon id="Fill-16" fill="#B1CDF8" points="247.909118 58.8552212 247.909118 52.6208256 263.26588 52.6208256 263.26588 64.7370039 269.074824 69.497951 269.074824 24.8428535 263.26588 24.8428535 263.26588 45.2832435 247.909118 45.2832435 247.909118 24.8428535 242.100173 24.8428535 242.100173 58.8552212"></polygon>
                    <path d="M208.839488,66.7791799 C211.261959,66.7791799 213.720406,67.1384111 216.175047,67.85479 C212.915658,64.748439 210.85234,58.2224669 210.85234,50.3147231 C210.85234,40.6710017 213.856823,30.6081159 220.800936,30.6081159 C227.744926,30.6081159 230.482469,41.5095755 230.482469,50.1050184 C230.482469,53.6784557 230.070886,56.9442607 229.333794,59.7453081 C232.219418,58.9226674 234.450954,58.8552579 234.75694,58.8552579 L235.745624,58.8552579 C236.225476,56.1626786 236.491556,53.1469014 236.491556,49.7906451 C236.491556,34.276907 230.215284,23.6898206 220.934406,23.6898206 C211.987386,23.6898206 204.909803,33.6479153 204.909803,50.6290964 C204.909803,57.073932 205.999541,62.5529738 207.86996,66.8028345 C208.192645,66.7888624 208.515821,66.7791799 208.839488,66.7791799" id="Fill-17" fill="#B1CDF8"></path>
                    <path d="M238.545628,108.55343 L238.15406,108.000794 C235.001373,107.295569 231.717058,106.929229 228.899826,106.929229 C224.609024,106.929229 220.459673,107.605285 216.565474,108.938767 C207.862924,111.918265 200.458973,117.221307 195.35802,121.623391 L191.830095,83.6459978 C192.577133,82.8785103 193.684429,81.8449393 195.121163,80.782566 C198.816078,78.0501538 202.879233,76.3977638 207.197908,75.8706217 C207.731542,75.8055409 208.283839,75.772449 208.839451,75.772449 C212.482796,75.772449 215.631431,77.1665994 216.901297,77.8164267 L213.948385,73.6228223 L212.347853,71.3492847 C211.248293,71.1577192 210.070026,71.0379755 208.839451,71.0379755 C208.116725,71.0379755 207.375581,71.0791565 206.622158,71.1710786 C193.934301,72.7196579 186.918357,82.0508446 186.918357,82.0508446 L191.558612,132.000037 C191.558612,132.000037 202.793405,118.659457 218.104858,113.416962 C221.794494,112.153586 225.478113,111.663703 228.900318,111.663703 C233.00964,111.663703 236.743356,112.369664 239.665571,113.289374 C239.933493,110.889106 239.507053,109.819992 238.545628,108.55343" id="Fill-18" fill="#B1CDF8"></path>
                    <path d="M254.467924,63.1449148 L234.757002,63.1449148 C234.757002,63.1449148 227.91689,63.1891599 223.307332,68.1405694 L223.724317,68.7495833 L226.14249,72.1652825 C227.129086,70.8329036 228.451874,69.7287365 230.137866,68.9868646 C232.467632,67.9615053 234.635197,67.8022964 234.787698,67.8022964 L252.730238,67.8022964 L252.751358,67.8022964 L284.289398,93.6777281 C278.910455,93.6827532 273.246645,93.7277337 270.141109,93.7277337 C258.789669,93.7277337 251.7973,98.123444 247.657281,102.449906 L247.817518,102.685594 C248.100789,103.06223 249.197156,104.616324 249.982136,106.985706 C253.500729,102.691477 259.629043,98.5008145 270.146512,98.5008145 C277.261299,98.5008145 297.553374,98.4364691 297.553374,98.4364691 L254.467924,63.1449148 Z" id="Fill-19" fill="#B1CDF8"></path>
                    <path d="M250.262226,122.141365 C248.273194,120.819036 247.640226,118.392418 248.327835,114.723014 C249.432184,108.828485 246.305159,104.582056 246.022503,104.213142 L221.726212,69.9936435 C220.907466,71.491727 218.809768,72.4110696 215.63719,71.8665237 L240.534402,107.214702 L240.554294,107.242156 C242.206274,109.418011 242.56162,111.357688 241.962541,114.928797 C240.831056,121.67722 243.305834,124.896819 245.581206,126.409733 L247.413438,127.628496 L248.23599,124.332418 L254.775396,125.142435 L250.262226,122.141365 Z" id="Fill-20" fill="#B1CDF8"></path>
                </g>
            </g>
        </g>
    </g>
</svg>

<svg width="448" height="132" viewBox="0 0 448 132" xmlns="http://www.w3.org/2000/svg" xmlns:xlink="http://www.w3.org/1999/xlink">
    <defs>
        <path id="a" d="M0 .024v71.28h28.71V.023z"/>
    </defs>
    <g fill="none" fill-rule="evenodd">
        <path d="M438.76 11V6.04H437V5h4.627v1.04h-1.712V11h-1.155zm3.556 0V5h1.802l1.036 4.132L446.198 5H448v6h-1.1V6.216L445.67 11h-1.044L443.4 6.216V11h-1.085z" fill="#B1CDF8"/>
        <g transform="translate(0 4.903)">
            <mask id="b" fill="#fff">
                <use xlink:href="#a"/>
            </mask>
            <path d="M5.809 63.627c1.335.42 2.871.524 4.874.524 3.606 0 7.278-1.782 9.481-5.45 1.536-2.516 2.47-5.975 2.47-10.378 0-5.45-1.468-9.12-3.672-11.53-2.336-2.516-5.341-3.564-8.546-3.564-1.335 0-3.138.21-4.607.419v29.98zM25.239 0v7.652H5.809v18.973c1.402-.315 4.073-.524 5.542-.524 4.273 0 8.48 1.467 11.618 4.717 3.405 3.459 5.742 9.015 5.742 17.295 0 6.604-1.402 11.636-3.74 15.304-3.672 5.661-9.748 7.862-15.89 7.862-4.073 0-7.145-.419-9.081-.838V0h25.239z" fill="#B1CDF8" mask="url(#b)"/>
        </g>
        <path d="M34.586 75.577h5.876V24.843h-5.876v50.734zm6.543-64.99c.067 3.145-1.402 5.66-3.739 5.66-2.07 0-3.539-2.515-3.539-5.66 0-3.25 1.536-5.765 3.673-5.765 2.203 0 3.605 2.516 3.605 5.765zM61.427 31.656c-3.472 0-5.943 2.83-7.278 6.919-1.068 3.04-1.603 6.708-1.603 10.796 0 8.386 2.604 20.44 9.014 20.44 6.477 0 8.88-9.853 8.88-19.182 0-8.28-2.07-18.973-9.013-18.973zm11.55-24.004c-1.668.943-4.606 1.782-6.743 2.306-5.208 1.258-9.014 3.983-11.484 9.539-2.07 4.612-3.272 11.426-3.539 16.771h.2c2.07-7.337 6.61-11.425 11.217-11.425 7.946 0 13.755 8.91 13.755 25.052 0 16.562-5.475 26.835-14.956 26.835-11.351 0-15.09-17.086-15.09-33.963 0-11.53 1.535-20.964 5.008-28.092 3.138-7.023 7.611-10.272 13.888-11.95C67.836 2.096 71.04 1.258 73.245 0l-.267 7.652zM106.63 24.843v50.734h-5.81V32.076H89.737v13.207c0 14.256-.868 23.795-5.075 28.092-1.602 1.992-3.405 3.145-6.41 3.145l-.6-7.232c1.135-.315 2.403-1.049 3.205-2.097 3.004-3.46 3.338-10.587 3.338-21.908v-20.44h22.434zM114.574 75.577h5.876V24.843h-5.876v50.734zm6.544-64.99c.066 3.145-1.402 5.66-3.74 5.66-2.07 0-3.538-2.515-3.538-5.66 0-3.25 1.536-5.765 3.672-5.765 2.204 0 3.606 2.516 3.606 5.765zM146.622 30.923c-1.468-.315-2.804-.525-4.874-.525-4.006 0-8.746 1.782-8.746 8.805 0 6.5 5.14 8.806 8.613 8.806h5.007V30.923zm5.81 44.654h-5.81v-21.28h-4.34c-2.47 0-4.14 1.05-5.408 2.831-2.404 3.04-3.272 9.33-4.54 14.256a40.549 40.549 0 0 1-1.336 4.193h-6.276c.735-1.677 1.402-3.564 2.003-5.765 1.402-4.927 2.204-11.53 5.075-15.304 1.001-1.363 2.203-2.516 3.672-2.935v-.315c-4.206-.734-8.546-4.822-8.546-12.579 0-5.24 1.802-8.805 4.273-11.006 2.67-2.41 6.61-3.46 10.816-3.46 3.873 0 7.612.525 10.416 1.05v50.314zM294.046 49.686c-6.41-.21-13.688 1.572-13.688 11.425 0 5.975 2.538 8.805 5.542 8.805 4.207 0 6.877-4.192 7.812-8.49.2-.943.334-1.992.334-2.935v-8.805zm.868 25.89l-.467-6.393h-.2c-1.803 3.983-5.275 7.547-9.882 7.547-6.544 0-9.882-7.233-9.882-14.57 0-12.265 6.944-18.973 19.43-18.868v-1.049c0-4.192-.735-11.74-7.345-11.74-3.005 0-6.143 1.468-8.413 3.774l-1.335-6.08c2.67-2.725 6.543-4.507 10.616-4.507 9.882 0 12.285 10.587 12.285 20.755v18.973c0 4.402.134 8.7.535 12.159h-5.342zM316.213 40.252c0 6.708-.6 13.207-1.67 18.868-.667 3.459-1.602 6.604-2.603 9.434h14.89V31.866h-10.617v8.386zm16.359-15.41V68.66l3.338.104-.334 22.956h-4.607l-.267-16.142h-22.368l-.267 16.142h-4.607l-.267-22.956 2.738-.104c1.402-3.25 2.47-6.709 3.205-10.378 1.268-6.29 1.87-13.103 1.87-20.23V24.843h21.566zM355.874 24.843l7.077 29.98c.735 3.353 1.536 7.337 2.07 10.376h.133c.601-3.04 1.27-6.918 2.07-10.587l6.41-29.77h6.21l-8.814 36.164c-4.206 17.401-7.077 26.311-11.084 31.762-2.87 3.983-5.742 5.555-7.21 5.975l-1.47-7.757c1.47-.734 3.406-2.202 5.142-4.508 1.602-1.991 3.605-5.555 4.94-10.272.268-.944.468-1.677.468-2.201 0-.525-.133-1.258-.4-2.411l-11.952-46.751h6.41zM405.95 73.69c-1.535 1.258-4.94 2.935-9.28 2.935-9.748 0-16.091-10.377-16.091-25.891 0-15.619 6.81-26.94 17.36-26.94 3.472 0 6.543 1.363 8.145 2.621l-1.335 7.128c-1.402-1.258-3.605-2.41-6.81-2.41-7.412 0-11.418 8.595-11.418 19.182 0 11.74 4.808 18.973 11.217 18.973 3.339 0 5.542-1.363 7.211-2.516l1.002 6.918zM431.257 45.283c.066-5.87-1.536-14.99-8.146-14.99-5.943 0-8.546 8.596-9.014 14.99h17.16zm-17.227 6.604c.134 12.474 5.208 17.61 11.084 17.61 4.206 0 6.744-1.153 8.947-2.62l1.001 6.603c-2.07 1.468-5.608 3.145-10.75 3.145-9.948 0-15.89-10.273-15.89-25.577 0-15.304 5.742-27.358 15.156-27.358 10.55 0 13.354 14.57 13.354 23.9 0 1.886-.134 3.354-.2 4.297H414.03zM193.493 71.06a35.08 35.08 0 0 1 5.876-2.603V24.843H172.66v50.734h5.809V32.18h15.023v38.88zM247.91 58.855v-6.234h15.356v12.116l5.809 4.761V24.843h-5.81v20.44H247.91v-20.44H242.1v34.012zM208.84 66.78c2.422 0 4.88.358 7.335 1.075-3.26-3.107-5.323-9.633-5.323-17.54 0-9.644 3.005-19.707 9.949-19.707s9.681 10.902 9.681 19.497c0 3.573-.411 6.84-1.148 9.64 2.885-.822 5.117-.89 5.423-.89h.989c.48-2.692.746-5.708.746-9.064 0-15.514-6.277-26.101-15.558-26.101-8.947 0-16.024 9.958-16.024 26.94 0 6.444 1.09 11.923 2.96 16.173.323-.014.646-.024.97-.024M238.546 108.553l-.392-.552c-3.153-.705-6.437-1.072-9.254-1.072-4.291 0-8.44.676-12.335 2.01-8.702 2.98-16.106 8.282-21.207 12.684l-3.528-37.977a27.18 27.18 0 0 1 3.291-2.863c3.695-2.733 7.758-4.385 12.077-4.912a13.613 13.613 0 0 1 1.641-.099c3.644 0 6.792 1.395 8.062 2.044l-2.953-4.193-1.6-2.274a20.458 20.458 0 0 0-3.509-.311c-.722 0-1.463.041-2.217.133-12.688 1.549-19.704 10.88-19.704 10.88l4.64 49.949s11.235-13.34 26.547-18.583c3.69-1.263 7.373-1.753 10.795-1.753 4.11 0 7.843.706 10.766 1.625.267-2.4-.159-3.469-1.12-4.736" fill="#B1CDF8"/>
        <path d="M254.468 63.145h-19.711s-6.84.044-11.45 4.996l.417.609 2.418 3.415a9.842 9.842 0 0 1 3.996-3.178c2.33-1.025 4.497-1.185 4.65-1.185h17.963l31.538 25.876c-5.379.005-11.042.05-14.148.05-11.351 0-18.344 4.395-22.484 8.722l.16.236c.284.376 1.38 1.93 2.165 4.3 3.519-4.295 9.647-8.485 20.165-8.485 7.114 0 27.406-.065 27.406-.065l-43.085-35.291zM250.262 122.141c-1.989-1.322-2.622-3.749-1.934-7.418 1.104-5.895-2.023-10.14-2.305-10.51l-24.297-34.22c-.819 1.499-2.916 2.418-6.089 1.874l24.897 35.348.02.027c1.652 2.176 2.008 4.116 1.409 7.687-1.132 6.748 1.343 9.968 3.618 11.48l1.832 1.22.823-3.297 6.54.81-4.514-3z" fill="#B1CDF8"/>
    </g>
</svg>
